img/footer__inst.svg

<svg width="30" height="30" viewBox="0 0 30 30" fill="none" xmlns="http://www.w3.org/2000/svg">
<path d="M0 15.0005C0 6.71622 6.71573 0.000488281 15 0.000488281C23.2843 0.000488281 30 6.71622 30 15.0005C30 23.2848 23.2843 30.0005 15 30.0005C6.71573 30.0005 0 23.2848 0 15.0005Z" fill="#6B6868"/>
<path d="M18.817 6.00049H11.184C8.32359 6.00049 6 8.32199 6 11.1656V18.8511C6 21.679 8.32163 24.0005 11.184 24.0005H18.815C21.6784 24.0005 24 21.679 24 18.8344V11.1666C24 8.32297 21.6784 6.00049 18.818 6.00049H18.817ZM10.32 15.0005C10.32 12.4145 12.4183 10.3203 15.0005 10.3203C17.5827 10.3203 19.68 12.4145 19.68 15.0005C19.68 17.5865 17.5817 19.6797 15.0005 19.6797C12.4183 19.6797 10.32 17.5865 10.32 15.0005ZM20.1492 10.7708C19.5468 10.7708 19.0678 10.2938 19.0678 9.69139C19.0678 9.08897 19.5458 8.61096 20.1492 8.61096C20.7507 8.61096 21.2287 9.08897 21.2287 9.69139C21.2287 10.2938 20.7507 10.7708 20.1492 10.7708Z" fill="white"/>
<path d="M15 12.0005C13.3387 12.0005 12 13.343 12 15.0005C12 16.657 13.3377 18.0005 15 18.0005C16.6633 18.0005 18 16.6561 18 15.0005C18 13.344 16.6431 12.0005 15 12.0005Z" fill="white"/>
</svg>

<svg width="30" height="30" fill="none" xmlns="http://www.w3.org/2000/svg"><path d="M0 15C0 6.716 6.716 0 15 0c8.284 0 15 6.716 15 15 0 8.285-6.716 15-15 15-8.284 0-15-6.715-15-15z" fill="#6B6868"/><path d="M18.817 6h-7.633C8.324 6 6 8.322 6 11.166v7.685c0 2.828 2.322 5.15 5.184 5.15h7.631C21.678 24 24 21.678 24 18.834v-7.667C24 8.323 21.678 6 18.818 6h-.001zm-8.497 9a4.68 4.68 0 119.359 0 4.68 4.68 0 01-9.359 0zm9.83-4.23a1.073 1.073 0 01-1.082-1.079c0-.602.478-1.08 1.081-1.08.602 0 1.08.478 1.08 1.08 0 .603-.478 1.08-1.08 1.08z" fill="#fff"/><path d="M15 12c-1.661 0-3 1.343-3 3s1.338 3 3 3c1.663 0 3-1.344 3-3s-1.357-3-3-3z" fill="#fff"/></svg>
